X: 20261
T: Joe Peter's
R: jig
M: 6/8
K: Dmajor
|:A/G/|F2 A FDF|G2 B GEG|ABA AFA|GFG EAG|
F2 A FDF|G2 B GEG|ABA dcB|Afe d2:|
|:f|e2 c A ^GA|fdA FDF|GBG FAd|
[1 ecA A2 f|e2 c A^GA|fdA FDF|GBe FAd|ecA d2:|
[2 ecA GFE|F2 A F/G/AD|GFG BAG|ABA dcB|Afe d2||

